X: 3876
T: Black Rogue, The
R: jig
M: 6/8
K: Dmajor
AFF F/F/EF|AFF FdB|AFF FEF|DB,B, GBd|
AFF FEF|AFA d2 B|AFF FEF|DB,B, B3:|
dcd ede|fdB AFA|dcd ede|fdB Bde|
~f3 ~d3|ABA AFD|BGD EAG|FDD DA/B/c|
dcd ede|fdB AFA|dcd ede|fdB Bde|
f z2 d3|ABA AFD|BGD EAG|FDD d2 B||

